icons/svg/hexagon.svg

﻿<?xml version="1.0" encoding="utf-8"?>
<!DOCTYPE svg PUBLIC "-//W3C//DTD SVG 1.1//EN" "http://www.w3.org/Graphics/SVG/1.1/DTD/svg11.dtd">
<svg xmlns="http://www.w3.org/2000/svg" xmlns:xlink="http://www.w3.org/1999/xlink" version="1.1" baseProfile="full" width="24" height="24" viewBox="0 0 24.00 24.00" enable-background="new 0 0 24.00 24.00" xml:space="preserve">
	<path fill="#000000" fill-opacity="1" stroke-width="0.2" stroke-linejoin="round" d="M 21,16.5C 21,16.8812 20.7867,17.2125 20.473,17.3813L 12.5664,21.8243C 12.4054,21.9351 12.2103,22 12,22C 11.7897,22 11.5946,21.9351 11.4336,21.8243L 3.52716,17.3814C 3.21335,17.2127 3,16.8812 3,16.5L 3,7.5C 3,7.11876 3.21334,6.78735 3.52716,6.61864L 11.4336,2.17575C 11.5946,2.0649 11.7897,2.00001 12,2.00001C 12.2103,2.00001 12.4053,2.06489 12.5664,2.17574L 20.473,6.61872C 20.7867,6.78746 21,7.11883 21,7.5L 21,16.5 Z "/>
</svg>

<svg xmlns="http://www.w3.org/2000/svg" version="1.1" baseProfile="full" width="24" height="24" viewBox="0 0 24.00 24.00" xml:space="preserve"><path fill="#000" fill-opacity="1" stroke-width=".2" stroke-linejoin="round" d="M21 16.5c0 .38-.213.712-.527.88l-7.907 4.444c-.16.11-.356.176-.566.176-.21 0-.405-.065-.566-.176L3.527 17.38c-.314-.167-.527-.5-.527-.88v-9c0-.38.213-.713.527-.88l7.907-4.444c.16-.11.356-.176.566-.176.21 0 .405.065.566.176l7.907 4.443c.314.167.527.5.527.88v9z"/></svg>
